X:0442
M:9/8
L:1/8
Q:3/8=120
K:G
ded TB.G.G TB.G.G|ded TB.G.G Tc2A   |ded TBGG    TBGB|cdc  (A=F)A Tc2A |
ded TBGG   TBGG  |ded TBGB    c2B/A/|GBd  g>ag/f/ gdB|cdc  TA=FA   c2A|]

